Newaita-dark/actions/16/archive-insert.svg

<?xml version="1.0" encoding="UTF-8"?>
<svg xmlns="http://www.w3.org/2000/svg" xmlns:xlink="http://www.w3.org/1999/xlink" width="16pt" height="16pt" viewBox="0 0 16 16" version="1.1">
<g id="surface1">
<path style=" stroke:none;fill-rule:nonzero;fill:rgb(74.117649%,74.117649%,74.117649%);fill-opacity:1;" d="M 2.644531 1.449219 C 1.914062 1.449219 1.324219 2.039062 1.324219 2.769531 L 1.324219 13.355469 C 1.324219 14.089844 1.914062 14.679688 2.644531 14.679688 L 13.230469 14.679688 C 13.964844 14.679688 14.554688 14.089844 14.554688 13.355469 L 14.554688 2.769531 C 14.554688 2.039062 13.964844 1.449219 13.230469 1.449219 Z M 2.976562 2.441406 L 12.898438 2.441406 C 13.265625 2.441406 13.5625 2.734375 13.5625 3.101562 L 13.5625 13.023438 C 13.5625 13.390625 13.265625 13.6875 12.898438 13.6875 L 2.976562 13.6875 C 2.609375 13.6875 2.316406 13.390625 2.316406 13.023438 L 2.316406 3.101562 C 2.316406 2.734375 2.609375 2.441406 2.976562 2.441406 Z M 2.976562 2.441406 "/>
<path style=" stroke:none;fill-rule:nonzero;fill:rgb(74.117649%,74.117649%,74.117649%);fill-opacity:1;" d="M 2.316406 7.566406 L 3.804688 7.566406 C 4.078125 7.566406 4.300781 7.769531 4.300781 8.019531 L 4.300781 8.105469 C 4.300781 8.355469 4.078125 8.558594 3.804688 8.558594 L 2.316406 8.558594 C 2.042969 8.558594 1.820312 8.355469 1.820312 8.105469 L 1.820312 8.019531 C 1.820312 7.769531 2.042969 7.566406 2.316406 7.566406 Z M 2.316406 7.566406 "/>
<path style=" stroke:none;fill-rule:nonzero;fill:rgb(74.117649%,74.117649%,74.117649%);fill-opacity:1;" d="M 12.238281 7.566406 L 13.726562 7.566406 C 14 7.566406 14.222656 7.769531 14.222656 8.019531 L 14.222656 8.105469 C 14.222656 8.355469 14 8.558594 13.726562 8.558594 L 12.238281 8.558594 C 11.964844 8.558594 11.742188 8.355469 11.742188 8.105469 L 11.742188 8.019531 C 11.742188 7.769531 11.964844 7.566406 12.238281 7.566406 Z M 12.238281 7.566406 "/>
<path style=" stroke:none;fill-rule:nonzero;fill:rgb(14.901961%,65.098041%,60.392159%);fill-opacity:1;" d="M 5.789062 7.566406 L 10.089844 7.566406 C 10.363281 7.566406 10.585938 7.769531 10.585938 8.019531 L 10.585938 8.105469 C 10.585938 8.355469 10.363281 8.558594 10.089844 8.558594 L 5.789062 8.558594 C 5.515625 8.558594 5.292969 8.355469 5.292969 8.105469 L 5.292969 8.019531 C 5.292969 7.769531 5.515625 7.566406 5.789062 7.566406 Z M 5.789062 7.566406 "/>
<path style=" stroke:none;fill-rule:nonzero;fill:rgb(14.901961%,65.098041%,60.392159%);fill-opacity:1;" d="M 8.433594 5.914062 L 8.433594 10.214844 C 8.433594 10.488281 8.230469 10.710938 7.980469 10.710938 L 7.894531 10.710938 C 7.644531 10.710938 7.441406 10.488281 7.441406 10.214844 L 7.441406 5.914062 C 7.441406 5.640625 7.644531 5.417969 7.894531 5.417969 L 7.980469 5.417969 C 8.230469 5.417969 8.433594 5.640625 8.433594 5.914062 Z M 8.433594 5.914062 "/>
</g>
</svg>

<svg xmlns="http://www.w3.org/2000/svg" width="16pt" height="16pt" viewBox="0 0 16 16"><path d="M2.645 1.45c-.73 0-1.32.59-1.32 1.32v10.585c0 .735.59 1.325 1.32 1.325H13.23a1.32 1.32 0 0 0 1.325-1.325V2.77c0-.73-.59-1.32-1.325-1.32zm.332.991h9.921a.66.66 0 0 1 .665.66v9.922a.664.664 0 0 1-.665.665H2.977a.66.66 0 0 1-.66-.665V3.102c0-.368.292-.66.66-.66zm0 0" fill="#bdbdbd"/><path d="M2.316 7.566h1.489c.273 0 .496.204.496.454v.085c0 .25-.223.454-.496.454H2.316c-.273 0-.496-.204-.496-.454V8.02c0-.25.223-.454.496-.454zm0 0M12.238 7.566h1.489c.273 0 .496.204.496.454v.085c0 .25-.223.454-.496.454h-1.489c-.273 0-.496-.204-.496-.454V8.02c0-.25.223-.454.496-.454zm0 0" fill="#bdbdbd"/><path d="M5.79 7.566h4.3c.273 0 .496.204.496.454v.085c0 .25-.223.454-.496.454h-4.3c-.274 0-.497-.204-.497-.454V8.02c0-.25.223-.454.496-.454zm0 0" fill="#26a69a"/><path d="M8.434 5.914v4.3c0 .274-.204.497-.454.497h-.085c-.25 0-.454-.223-.454-.496v-4.3c0-.274.204-.497.454-.497h.085c.25 0 .454.223.454.496zm0 0" fill="#26a69a"/></svg>
